!!!OTL: Reigentanz.
!!!OTL-incipit: NIMM SIE BEI DER SCHNEEWEISSEN HAND
!!!COM: Ges. v. H. Langer
!!!ARE: Europa, Mitteleuropa, Deutschland
!!!SCT: F0682
!!!TXL: @@DE
!!!YEM: Copyright 1995, estate of Helmut Schaffrath.
**kern	**text
*ICvox	*
*M2/4	*
*k[f#c#]	*
*D:	*
=1	=1
!LO:TX:a:t=Nicht schnell	!
!LO:TX:a:t=(Aus der Gegend von Bonn.)	!
{8a	1._Nimm
8dd/	ſie_bei
8dd/	der
8dd/	ſchnee-
=2	=2
(8dd/	-weißen
8b/)	.
8a}	Hand
{8a	und
=3	=3
8b/	führ'
8a	ſie
8g	in
8f#	den
=4	=4
8e	Ro-
8e	-ſen-
4d}	-kranʒ.
=5	=5
{8d	Blau,
8f#	blau
16a	Blumen
16a	.
8a	auf
=6	=6
8b/	mei-
8b/	-nen
4a}	Hut,
=7	=7
{8d	hätt'
8f#	ich
16a	Geld
16a	.
8a	und
=8	=8
8b/	das
8b/	wär'
4a}	gut.
=9	=9
{8g	Blumen
8g	.
8f#	auf
8f#	mein
=10	=10
4e	Hüt-
8d	-chen.
8r}	.
==	==
!!!AGN: Geselligkeits - Lied, Reigen - Tanz
!!!ONB: ESAC (Essen Associative Code) Database: FINK
!!!AMT: simple duple
!!!AIN: vox
!!!EED: Helmut Schaffrath
!!!EEV: 1.0
!!Text: Nach L. Erk
!!!GTL: Liedertafel- und Gesellschaftslieder.
!!!source: Musikalischer Hausschatz der Deutschen. Eine Sammlung von über 1000 Liedern und Gesängen mit Singstimmen und Klavierbegleitung. Leipzig, Litterarisches Verlags-Haus.
!!!page: 459
!!!ENC: Anna Maria Matuszewska
!!!EEV: 2025/03/18
*-	*-
